packages/web-icons/svgs/openq.svg

<svg viewBox="0 0 48 42" xmlns="http://www.w3.org/2000/svg" class="ridi_icon"><path d="M19 24.9c-1.8-1.7-3.9-2.6-6.3-2.6-1.1 0-1.9-.2-2.1-.6-.3-.4-.2-1.4.2-2.8.6-2.7 2-5.1 4.1-7.2 2.1-2.1 4.6-3.8 7.7-5L19.8.9C17 2 14.4 3.4 12 5.1 9.6 6.9 7.6 9 5.8 11.3c-1.8 2.3-3.2 5-4.2 7.8S0 25 0 28.1c0 3.7 1 6.7 3 9.2 2 2.5 4.7 3.8 8.1 3.8 3.3 0 5.9-1 7.8-2.9 1.9-1.9 2.8-4.2 2.8-7 0-2.5-.9-4.6-2.7-6.3zm25.5 0c-1.8-1.7-3.9-2.6-6.3-2.6-1.3 0-2-.2-2.3-.6-.3-.4-.2-1.4.2-2.8.7-2.7 2.1-5.1 4.2-7.2 2.1-2.1 4.6-3.8 7.7-5L45.2.9c-2.7 1-5.3 2.5-7.7 4.2-2.4 1.8-4.5 3.9-6.2 6.2-1.8 2.3-3.2 5-4.2 7.8-1 2.9-1.6 5.9-1.6 9 0 3.7 1 6.7 3 9.2 2 2.5 4.6 3.8 8 3.8 3.4 0 6-1 7.9-2.9 1.9-1.9 2.9-4.2 2.9-7-.1-2.5-1-4.6-2.8-6.3z"/></svg>

<?xml version="1.0" encoding="UTF-8"?>
<svg width="48px" height="42px" viewBox="0 0 48 42" version="1.1" xmlns="http://www.w3.org/2000/svg">
  <!-- Generator: Sketch 41.2 (35397) - http://www.bohemiancoding.com/sketch -->
  <title>openq</title>
  <desc>Created with Sketch.</desc>
  <defs></defs>
  <g id="Page-1" stroke="none" stroke-width="1" fill="none" fill-rule="evenodd">
    <g id="openq" fill="#000000">
      <g id="레이어_1">
        <path d="M19,24.9 C17.2,23.2 15.1,22.3 12.7,22.3 C11.6,22.3 10.8,22.1 10.6,21.7 C10.3,21.3 10.4,20.3 10.8,18.9 C11.4,16.2 12.8,13.8 14.9,11.7 C17,9.6 19.5,7.9 22.6,6.7 L19.8,0.9 C17,2 14.4,3.4 12,5.1 C9.6,6.9 7.6,9 5.8,11.3 C4,13.6 2.6,16.3 1.6,19.1 C0.6,21.9 0,25 0,28.1 C0,31.8 1,34.8 3,37.3 C5,39.8 7.7,41.1 11.1,41.1 C14.4,41.1 17,40.1 18.9,38.2 C20.8,36.3 21.7,34 21.7,31.2 C21.7,28.7 20.8,26.6 19,24.9 L19,24.9 Z M44.5,24.9 C42.7,23.2 40.6,22.3 38.2,22.3 C36.9,22.3 36.2,22.1 35.9,21.7 C35.6,21.3 35.7,20.3 36.1,18.9 C36.8,16.2 38.2,13.8 40.3,11.7 C42.4,9.6 44.9,7.9 48,6.7 L45.2,0.9 C42.5,1.9 39.9,3.4 37.5,5.1 C35.1,6.9 33,9 31.3,11.3 C29.5,13.6 28.1,16.3 27.1,19.1 C26.1,22 25.5,25 25.5,28.1 C25.5,31.8 26.5,34.8 28.5,37.3 C30.5,39.8 33.1,41.1 36.5,41.1 C39.9,41.1 42.5,40.1 44.4,38.2 C46.3,36.3 47.3,34 47.3,31.2 C47.2,28.7 46.3,26.6 44.5,24.9 L44.5,24.9 Z" id="Shape"></path>
      </g>
    </g>
  </g>
</svg>
